build/system/DomainSolid.svg

<svg xmlns="http://www.w3.org/2000/svg" fill="none" viewBox="0 0 24 24" focusable="false"><path d="M0 0H24V24H0z"/><path fill="#74767B" fill-rule="evenodd" d="M7 3C5.34315 3 4 4.34315 4 6L4 18C4 19.6569 5.34315 21 7 21L17 21C18.6569 21 20 19.6569 20 18L20 6C20 4.34315 18.6569 3 17 3L7 3ZM13.1964 9.3176C13.5387 9.42586 13.7284 9.79109 13.6201 10.1334L12.3145 14.2613C12.2062 14.6036 11.841 14.7933 11.4987 14.6851C11.1564 14.5768 10.9667 14.2116 11.075 13.8693L12.3806 9.74132C12.4889 9.39905 12.8541 9.20934 13.1964 9.3176ZM16.8125 10.1334C16.9208 9.79109 16.7311 9.42586 16.3888 9.3176C16.0465 9.20934 15.6813 9.39905 15.573 9.74132L14.2674 13.8693C14.1591 14.2116 14.3488 14.5768 14.6911 14.6851C15.0333 14.7933 15.3986 14.6036 15.5068 14.2613L16.8125 10.1334ZM9.80762 13.7178C9.80762 14.2701 9.3599 14.7178 8.80762 14.7178C8.25533 14.7178 7.80762 14.2701 7.80762 13.7178C7.80762 13.1655 8.25533 12.7178 8.80762 12.7178C9.3599 12.7178 9.80762 13.1655 9.80762 13.7178ZM8.80762 11.2822C9.3599 11.2822 9.80762 10.8345 9.80762 10.2822C9.80762 9.72994 9.3599 9.28223 8.80762 9.28223C8.25533 9.28223 7.80762 9.72994 7.80762 10.2822C7.80762 10.8345 8.25533 11.2822 8.80762 11.2822Z"/></svg>

<svg xmlns="http://www.w3.org/2000/svg" fill="none" viewBox="0 0 24 24" focusable="false"><path fill="#74767B" fill-rule="evenodd" d="M7 3C5.34 3 4 4.34 4 6v12c0 1.65 1.34 3 3 3h10c1.65 0 3-1.35 3-3V6c0-1.66-1.35-3-3-3zm6.19 6.31c.34.11.53.48.43.82l-1.31 4.13a.65.65 0 1 1-1.24-.4l1.31-4.12c.1-.35.47-.54.81-.43m3.62.82a.65.65 0 0 0-.43-.82c-.34-.11-.7.08-.81.43l-1.31 4.12c-.11.35.08.71.43.82.34.11.7-.08.81-.42zM9.8 13.71c0 .56-.45 1-1 1s-1-.44-1-1c0-.55.45-1 1-1s1 .45 1 1m-1-2.43c.55 0 1-.45 1-1 0-.56-.45-1-1-1s-1 .44-1 1c0 .55.45 1 1 1"/></svg>
